icons/undo-24.svg

<svg width="24" height="24" viewBox="0 0 24 24">
  <path
    d="M9.53033 2.21967C9.23744 1.92678 8.76256 1.92678 8.46967 2.21967L2.21967 8.46967C1.92678 8.76256 1.92678 9.23744 2.21967 9.53033L8.46967 15.7803C8.76256 16.0732 9.23744 16.0732 9.53033 15.7803C9.82322 15.4874 9.82322 15.0126 9.53033 14.7197L4.56066 9.75L16 9.75C16.7966 9.75 18.0083 9.99516 18.9993 10.7087C19.952 11.3946 20.75 12.5444 20.75 14.5C20.75 16.4556 19.952 17.6054 18.9993 18.2913C18.0083 19.0048 16.7966 19.25 16 19.25H13C12.5858 19.25 12.25 19.5858 12.25 20C12.25 20.4142 12.5858 20.75 13 20.75H16C17.0367 20.75 18.575 20.4452 19.8757 19.5087C21.2147 18.5446 22.25 16.9444 22.25 14.5C22.25 12.0556 21.2147 10.4554 19.8757 9.49135C18.575 8.55484 17.0367 8.25 16 8.25L4.56066 8.25L9.53033 3.28033C9.82322 2.98744 9.82322 2.51256 9.53033 2.21967Z" />
</svg>

<svg xmlns="http://www.w3.org/2000/svg" width="24" height="24" viewBox="0 0 24 24"><path d="M9.53 2.22a.75.75 0 0 0-1.06 0L2.22 8.47a.75.75 0 0 0 0 1.06l6.25 6.25a.75.75 0 0 0 1.06-1.06L4.56 9.75H16c.797 0 2.008.245 3 .959.952.686 1.75 1.835 1.75 3.791s-.798 3.105-1.75 3.791c-.992.714-2.203.959-3 .959h-3a.75.75 0 0 0 0 1.5h3c1.037 0 2.575-.305 3.876-1.241 1.339-.964 2.374-2.565 2.374-5.009 0-2.444-1.035-4.045-2.374-5.009C18.575 8.555 17.036 8.25 16 8.25H4.56l4.97-4.97a.75.75 0 0 0 0-1.06Z"/></svg>
